!!!OTL: Bayue shiwu yue tuanyuan
!!!ARE: Asia, China,ÿGuangdong, Meixian
!! II, 411
!!!SCT: C1518
!!!YEM: Copyright 1995, estate of Helmut Schaffrath.
**kern
*ICvox
*Ivox
!! 2+3 metric grouping
!! Mixed meters:  4/4; 5/4
*M4/4
*k[f#c#]
*D:
{8b
16b
16dd
8ee
8cc#
8b
4ee
8ff#
=1
16ee
16ff#
8ee
4b
16b
16dd
4ee
8ff#}
=2
{16ee
16ff#
16ee
16dd
8ee
8r
16b
16dd
8b
4b
=3
4ee
8b
8b
8b
4.dd}
=4
*M5/4
{16b
16dd
4.b
8dd
16ee
16dd
4.ee
8ff#}
=5
*M4/4
{8dd
16ee
16ff#
8ee
24dd
24ee
24dd
8b
4dd
16ee
16ff#}
=6
*M5/4
{16ee
16dd
4b
8r
8b
16ee
16dd
4.ee
8ff#
=7
*M4/4
16ee
16dd
8b
4b
8b
4.b}
=8
{8ff#
4.ff#
16ee
16ff#
4ee
8ff#
=9
8dd
16ee
16dd
4b
16b
16dd
4ee
8ff#}
=10
{8dd
16ee
[16ff#
8ff#]
8r
16ee
16ff#
16ee
16dd
4b
=11
4ee
8b
24dd
24ee
24dd
8b
4.dd}
=12
*M5/4
{16b
16dd
4.b
16b
16dd
8b
4.ee
8ff#
=13
*M4/4
8dd
8ff#
8ee
32dd
32ee
32dd
32b
8b
4dd
16ee
16ff#}
=14
*M5/4
{8ee
16dd
[16b
8b]
8r
24dd
24ee
24dd
8b
4.ee
8ff#
=15
*M4/4
4ee
8b
24dd
24ee
24dd
8b
4.b}
=16
{8ff#
4.ff#
16ee
16ff#
4ee
8ff#
=17
16ee
16ff#
16ee
16dd
4b
16b
16dd
4ee
8ff#}
=18
{8dd
16ee
16ff#
8ff#
8r
16ee
16ff#
16ee
16dd
4b
=19
8ee
24dd
24ee
24dd
8b
16dd
16ee
8b
4.dd}
=20
*M5/4
{16b
16dd
4.b
16dd
16ee
8b
4.ee
8ff#}
=21
*M4/4
{8dd
16ee
16ff#
8ee
24ee
24dd
24b
8ee
4dd
16ee
16ff#}
=22
*M5/4
{8ee
16dd
[16b
8b]
8r
8b
8b
4.ee
8ff#
=23
4ee
8b
16dd
16ee
8b
4.b}
==
!!!AGN: Shange, Songkou zhengban shange
!!!AMT: irregular
!!!AIN: vox
!!!EED: Helmut Schaffrath
!!!EEV: 1.0
*-
